symbols/web/view_agenda/materialsymbolsoutlined/view_agenda_wght700grad200fill1_24px.svg

<svg xmlns="http://www.w3.org/2000/svg" height="24" width="24"><path d="M5.25 11.275q-1.425 0-2.412-.988Q1.85 9.3 1.85 7.875V4.6q0-1.425.988-2.413Q3.825 1.2 5.25 1.2h13.5q1.425 0 2.413.987.987.988.987 2.413v3.275q0 1.425-.987 2.412-.988.988-2.413.988Zm0 11.525q-1.425 0-2.412-.988-.988-.987-.988-2.412v-3.275q0-1.425.988-2.413.987-.987 2.412-.987h13.5q1.425 0 2.413.987.987.988.987 2.413V19.4q0 1.425-.987 2.412-.988.988-2.413.988Z"/></svg>

<svg xmlns="http://www.w3.org/2000/svg" height="24" width="24"><path d="M5.25 11.275Q3.825 11.275 2.838 10.287Q1.85 9.3 1.85 7.875V4.6Q1.85 3.175 2.838 2.187Q3.825 1.2 5.25 1.2H18.75Q20.175 1.2 21.163 2.187Q22.15 3.175 22.15 4.6V7.875Q22.15 9.3 21.163 10.287Q20.175 11.275 18.75 11.275ZM5.25 22.8Q3.825 22.8 2.838 21.812Q1.85 20.825 1.85 19.4V16.125Q1.85 14.7 2.838 13.712Q3.825 12.725 5.25 12.725H18.75Q20.175 12.725 21.163 13.712Q22.15 14.7 22.15 16.125V19.4Q22.15 20.825 21.163 21.812Q20.175 22.8 18.75 22.8Z"/></svg>
